X: 2442
T: HIGHLAND POLKA
R: By D. Kippen
B: Kerr's v.2 p.51 #442
Z: 2016 John Chambers <jc:trillian.mit.edu>
M: 2/4
L: 1/8
K: G
d !segno!|\
gBdG | (Bd)d2 | cAA>A | edd (e/f/) |\
gBdG | Bdd2 | cAA>F | AGG :|
z |\
(Ad)(df) | (af)f2 | gee>^c eAA2 |\
(Ad)(df) | aff2 | gee>^c | edd "^D.C."(e/f/) !segno!|]
